X:1
T:Wenn ich ein Vöglein wär
T:Op. 43, No. 1
T:Robert Schumann (1810-1856)
T:Wenn ich ein Vöglein wär
T:Copyright © 2014 by the Choral Public Domain Library (http://www.cpdl.org)
T:Copyright © 2014 by the Choral Public Domain Library (http://www.cpdl.org)
T:Copyright © 2014 by the Choral Public Domain Library (http://www.cpdl.org)
C:Robert Schumann
Z:Copyright © 2014 by the Choral Public Domain Library (http://www.cpdl.org)
%%score 1 2 ( 3 4 ) 5
L:1/8
Q:1/8=120
M:3/8
K:G
V:1 treble nm="Part_1"
V:2 treble nm="Part_2"
V:3 treble nm="Part_3"
V:4 treble 
V:5 bass nm="Part_4"
V:1
 EEF | G>FE | FFG | A>GF | GG>G | B3 | BB>B | (d2 ^d) | eee | d>cB | ccc | B>AG | (B/A/)GF | E3 || %14
w: Wenn ich ein|Vög- lein wär'|und auch zwei|Flüg- lein hätt',|flög' ich zu|dir,|flög' ich zu|dir. _|Weil's a- ber|nicht kann sein,|weil's a- ber|nicht kann sein,|bleib' _ ich all-|hier.|
 FFF | ^A>^GG | ^A/A/AA | ^c>BB | ^cB^A | ^d2- d/B/ | ^d/^c/B^A | B3 | ccc | c>FF | ccc | %25
w: Bin ich gleich|weit von dir,|bin ich doch im|Schlaf bei dir|und red' mit|dir, _ _|und _ red' mit|dir!|Wenn ich er-|wa- chen thu|bin ich al-|
 (B>AG/F/) || E/E/EF | GG/F/E | F/F/FG | A>GF | G/G/GG/ x/ | B3 | B/B<BB/ | (d2 ^d) | e/e/ee | %35
w: lein. _ _ _|Es ver- geht kein'|Stund' in der Nacht,|da mein Her- ze|nicht er- wacht,|und an dich ge-|denkt,|und an dich ge-|denkt _|dass du mir viel|
 d>cB | c/c<cc/ | B>AG | B/A/GF | !fermata!E3 |] %40
w: tau- send mal,|tau- send mal dem|Herz ge- schenkt,|dem _ Herz ge-|Schenkt.|
V:2
 G,G,B, | E>B,G, | B,B,E | F>EB, | EE>E | D3 | GG>G | (F2 =F) | Ecc | B>A G/=F/ | EE E/F/ | %11
w: Wenn ich ein|Vög- lein wär'|und auch zwei|Flüg- lein hätt',|flög' ich zu|dir,|flög' ich zu|dir. _|Weil's a- ber|nicht kann sein, _|weil's a- ber _|
 G>F E/D/ | CB,A, | G,3 || z3 | z3 | ^CCC | E^D/D z/ | E/E/^D^C | ^C>C B,/^D/ | F/E/^D^C | ^D3 | %22
w: nicht kann sein, _|bleib' ich all-|hier.|||Bin ich gleich|weit von dir|bin ich doch im|Schlaf bei dir _|und * red' mit|dir!|
 AAA | A>^DD | AAA | A3 || B,/B,/B,B, | EE/B,/G, | B,/B,/B,E | F>EB, | E/E/EE/ x/ | D3 | %32
w: Wenn ich er-|wa- chen thu|bin ich al-|lein.|Es ver- geht kein'|Stund' in der Nacht,|da mein Her- ze|nicht er- wacht,|und an dich ge-|denkt,|
 G/G/GG/ x/ | (F2 =F) | E/c/cc | B>A G/=F/ | E/E/E E/F/ | G>F E/D/ | CB,A, | !fermata!G,3 |] %40
w: und an dich ge-|denkt *|dass du mir viel|tau- send mal, _|tau- send mal dem _|Herz ge schenkt, _|dem Herz ge-|schenkt.|
V:3
 [G,B,E] z [^DF]/B,/ | [B,EG]>[B,^DF]E/B,/ | [^DF] z/ D/[EG]/B,/ | [FA]>[EG][^DF]/B,/ | %4
 [B,EG][B,EG][B,EG] | [DFB]3 | [DGB][DGB][DGB] | [FAd]2 ^d | eee | d>cB | ccc | B>AG | %12
 [CB]/A/[EG]/B,/[^DF]/A,/ | E/B,/E/B,/G,/E,/ || z/ F,/F/^D/B,/ x/ | z/ ^G,/^G/E/B,/ z/ | %16
 z/ ^A,/^A/E/^C/ z/ | z/ B,/B/^G/^D/ z/ | z/ [^G^c]/ z/ [^DFB]/ z/ [^CE^A]/ | x/ ^D/ ^a^g | %20
 [^df]/[^ce]/ [Bd][F^Ac] | [^DB]/ D/B/F/D/B,/ | [DFc][DFc][DFc] | [^DFc]>[CD][CD] | %24
 [^DFc][DFc][DFc] | [^DFB]3 || [G,B,E] z [^DF]/B,/ | [B,EG]>[B,^DF]E/B,/ | [^DF] z/ D/[EG]/B,/ | %29
 [FA]>[EG][^DF]/B,/ | [B,EG][B,EG][B,EG] | [DFB]3 | [DGB][DGB][DGB] | [FAd]2 ^d | eee | d>cB | %36
 ccc | B>AG | [CB]/A/[EG]/B,/[^DF]/A,/ | !fermata![G,B,E]3 |] %40
V:4
 x3 | x3 | x3 | x3 | x3 | x3 | x3 | x2 =F/G/ | Ec c/A/ | B>A G/=F/ | EEE/F/ | G>F E/D/ | x3 | x3 || %14
 x3 | x3 | x3 | x3 | x3 | z/ z/ ^a/^A/ B/^d/ | ^GFE | x3 | x3 | x3 | x3 | x3 || x3 | x3 | x3 | x3 | %30
 x3 | x3 | x3 | x2 =F/G/ | Ec c/A/ | B>A G/F/ | EEE | G>F E/D/ | x3 | x3 |] %40
V:5
 [E,,E,]/B,,/E,/G,/B,, | [E,,E,]/B,,/E,/F,/G, | [B,,B,]/F,/B,/ z/ E, | [B,,B,]/F,/B,/^C/B,, | %4
 [E,,E,]/B,,/E,/F,/G,/A,/ | [B,,B,]/F,/B,/^C/ x | [G,,G,]/D,/G,/A,/B,/^C/ | [D,D]/A,/D/F/[G,B,] | %8
 [C,C]/G,/C/D/E/F/ | G/F/G/D/B,/^G,/ | A,/A,,/A,/B,/C/D/ | E/D/E/B,/E,/G,/ | A,,B,,B,,, | E,,3 || %14
 B,,3 | E,3 | ^^F,3 | ^G,3 | E,F,F, | ^^F,2 [^G,^D] | E,F,F, | [B,,B,]3 | [B,,A,][B,,A,][B,,A,] | %23
 [B,,A,]>[F,A,][F,A,] | [B,,A,][B,,A,][B,,A,] | [B,,A,]3 || [E,,E,]/B,,/E,/G,/B,, | %27
 [E,,E,]/B,,/E,/F,/G, | [B,,B,]/F,/B,/ z/ E, | [B,,B,]/F,/B,/^C/B,, | [E,,E,]/B,,/E,/F,/G,/A,/ | %31
 [B,,B,]/F,/B,/^C/ x | [G,,G,]/D,/G,/A,/B,/^C/ | [D,D]/A,/D/F/[G,B,] | [C,C]/G,/C/D/E/F/ | %35
 G/F/G/D/B,/^G,/ | A,/A,,/A,/B,/C/D/ | E/D/E/B,/E,/G,/ | A,,B,,B,,, | !fermata![E,,B,,]3 |] %40

